svg/building/hotel_fill.svg

<svg xmlns="http://www.w3.org/2000/svg" width="24" height="24" viewBox="0 0 24 24"><g fill="none" fill-rule="evenodd"><path d="M24,0 L24,24 L0,24 L0,0 L24,0 Z M12.5935,23.2578 L12.5819,23.2595 L12.5109,23.295 L12.4919,23.2987 L12.4767,23.295 L12.4057,23.2595 C12.3958,23.2564 12.387,23.259 12.3821,23.2649 L12.378,23.2758 L12.3609,23.7031 L12.3659,23.7235 L12.3769,23.7357 L12.4805,23.8097 L12.4953,23.8136 L12.5071,23.8097 L12.6107,23.7357 L12.6233,23.7197 L12.6267,23.7031 L12.6096,23.2758 C12.6076,23.2657 12.601,23.2593 12.5935,23.2578 Z M12.8584,23.1453 L12.8445,23.1473 L12.6598,23.2397 L12.6499,23.2499 L12.6472,23.2611 L12.6651,23.6906 L12.6699,23.7034 L12.6784,23.7105 L12.8793,23.8032 C12.8914,23.8069 12.9022,23.803 12.9078,23.7952 L12.9118,23.7812 L12.8777,23.1665 C12.8753,23.1546 12.8674,23.147 12.8584,23.1453 Z M12.143,23.1473 C12.1332,23.1424 12.1222,23.1453 12.1156,23.1526 L12.1099,23.1665 L12.0758,23.7812 C12.0751,23.7927 12.0828,23.8019 12.0926,23.8046 L12.1083,23.8032 L12.3092,23.7105 L12.3186,23.7024 L12.3225,23.6906 L12.3404,23.2611 L12.3372,23.2485 L12.3278,23.2397 L12.143,23.1473 Z"/><path fill="#09244B" d="M17,3 C18.1046,3 19,3.89543 19,5 L19,6 L20,6 C20.5523,6 21,6.44772 21,7 C21,7.55228 20.5523,8 20,8 L20,19 C20.5523,19 21,19.4477 21,20 C21,20.5523 20.5523,21 20,21 L13.5,21 L13.5,16.5 C13.5,15.6716 12.8284,15 12,15 C11.1716,15 10.5,15.6716 10.5,16.5 L10.5,21 L4,21 C3.44772,21 3,20.5523 3,20 C3,19.4477 3.44772,19 4,19 L4,8 C3.44772,8 3,7.55228 3,7 C3,6.44772 3.44772,6 4,6 L5,6 L5,5 C5,3.89543 5.89543,3 7,3 L17,3 Z M8,13 C7.44772,13 7,13.4477 7,14 L7,15 C7,15.5523 7.44772,16 8,16 C8.55228,16 9,15.5523 9,15 L9,14 C9,13.4477 8.55228,13 8,13 Z M16,13 C15.48715,13 15.0644908,13.386027 15.0067275,13.8833761 L15,14 L15,15 C15,15.5523 15.4477,16 16,16 C16.51285,16 16.9355092,15.613973 16.9932725,15.1166239 L17,15 L17,14 C17,13.4477 16.5523,13 16,13 Z M8,9 C7.48716857,9 7.06449347,9.38604429 7.0067278,9.88337975 L7,10 L7,11 C7,11.5523 7.44772,12 8,12 C8.51283143,12 8.93550653,11.613973 8.9932722,11.1166239 L9,11 L9,10 C9,9.44772 8.55228,9 8,9 Z M12,9 C11.48715,9 11.0644908,9.38604429 11.0067275,9.88337975 L11,10 L11,11 C11,11.5523 11.4477,12 12,12 C12.51285,12 12.9355092,11.613973 12.9932725,11.1166239 L13,11 L13,10 C13,9.44772 12.5523,9 12,9 Z M16,9 C15.4477,9 15,9.44772 15,10 L15,11 C15,11.5523 15.4477,12 16,12 C16.5523,12 17,11.5523 17,11 L17,10 C17,9.44772 16.5523,9 16,9 Z M17,5 L7,5 L7,6 L17,6 L17,5 Z"/></g></svg>

<svg xmlns="http://www.w3.org/2000/svg" width="24" height="24"><g fill="none" fill-rule="evenodd"><path d="M24 0v24H0V0zM12.594 23.258l-.012.002-.071.035-.02.004-.014-.004-.071-.036c-.01-.003-.019 0-.024.006l-.004.01-.017.428.005.02.01.013.104.074.015.004.012-.004.104-.074.012-.016.004-.017-.017-.427c-.002-.01-.009-.017-.016-.018m.264-.113-.014.002-.184.093-.01.01-.003.011.018.43.005.012.008.008.201.092c.012.004.023 0 .029-.008l.004-.014-.034-.614c-.003-.012-.01-.02-.02-.022m-.715.002a.023.023 0 0 0-.027.006l-.006.014-.034.614c0 .012.007.02.017.024l.015-.002.201-.093.01-.008.003-.011.018-.43-.003-.012-.01-.01z"/><path fill="#09244B" d="M17 3a2 2 0 0 1 2 2v1h1a1 1 0 1 1 0 2v11a1 1 0 1 1 0 2h-6.5v-4.5a1.5 1.5 0 0 0-3 0V21H4a1 1 0 1 1 0-2V8a1 1 0 0 1 0-2h1V5a2 2 0 0 1 2-2zM8 13a1 1 0 0 0-1 1v1a1 1 0 1 0 2 0v-1a1 1 0 0 0-1-1m8 0a1 1 0 0 0-.993.883L15 14v1a1 1 0 0 0 1.993.117L17 15v-1a1 1 0 0 0-1-1M8 9a1 1 0 0 0-.993.883L7 10v1a1 1 0 0 0 1.993.117L9 11v-1a1 1 0 0 0-1-1m4 0a1 1 0 0 0-.993.883L11 10v1a1 1 0 0 0 1.993.117L13 11v-1a1 1 0 0 0-1-1m4 0a1 1 0 0 0-1 1v1a1 1 0 1 0 2 0v-1a1 1 0 0 0-1-1m1-4H7v1h10z"/></g></svg>
